libs/icons/src/svg/archive.svg

<svg width="16" height="16" viewBox="0 0 16 16" fill="none" xmlns="http://www.w3.org/2000/svg">
<g clip-path="url(#clip0_3_3751)">
<path fill-rule="evenodd" clip-rule="evenodd" d="M1.59348 1.44752C1.54636 1.49504 1.50757 1.5713 1.50757 1.66819V11.6895H14.4924V1.66819C14.4924 1.5713 14.4536 1.49504 14.4065 1.44752C14.3604 1.40103 14.3149 1.38813 14.2801 1.38813H12.3477C11.9314 1.38813 11.5939 1.07738 11.5939 0.694064C11.5939 0.310743 11.9314 0 12.3477 0H14.2801C15.2926 0 16 0.80778 16 1.66819V14.3318C16 15.1922 15.2926 16 14.2801 16H1.71995C0.707395 16 0 15.1922 0 14.3318V1.66819C0 0.80778 0.707395 0 1.71995 0H3.65227C4.06858 0 4.40606 0.310743 4.40606 0.694064C4.40606 1.07738 4.06858 1.38813 3.65227 1.38813H1.71995C1.68505 1.38813 1.6396 1.40103 1.59348 1.44752ZM14.4924 13.0776H1.50757V14.3318C1.50757 14.4287 1.54636 14.505 1.59348 14.5525C1.6396 14.599 1.68505 14.6119 1.71995 14.6119H14.2801C14.3149 14.6119 14.3604 14.599 14.4065 14.5525C14.4536 14.505 14.4924 14.4287 14.4924 14.3318V13.0776ZM5.79695 0.694064C5.79695 0.310743 6.13444 0 6.55074 0H9.44923C9.86553 0 10.203 0.310743 10.203 0.694064V4.87062H11.3815C11.6712 4.87062 11.9353 5.02348 12.0609 5.26385C12.1864 5.50423 12.1513 5.78959 11.9704 5.99796L8.58886 9.89446C8.44582 10.0593 8.22912 10.1553 7.99998 10.1553C7.77085 10.1553 7.55415 10.0593 7.41111 9.89446L4.02955 5.99796C3.84871 5.78959 3.81356 5.50423 3.93912 5.26385C4.06468 5.02348 4.32873 4.87062 4.61842 4.87062H5.79695V0.694064ZM7.30453 1.38813V5.56469C7.30453 5.94801 6.96705 6.25875 6.55074 6.25875H6.18565L7.99998 8.34937L9.81432 6.25875H9.44923C9.03292 6.25875 8.69544 5.94801 8.69544 5.56469V1.38813H7.30453Z" fill="#202327"/>
</g>
<defs>
<clipPath id="clip0_3_3751">
<rect width="16" height="16" fill="white"/>
</clipPath>
</defs>
</svg>

<svg xmlns="http://www.w3.org/2000/svg" viewBox="0 0 16 16" class="sageicon"><path fill-rule="evenodd" d="M1.593 1.448a.312.312 0 0 0-.085.22V11.69h12.984V1.67a.312.312 0 0 0-.086-.221.177.177 0 0 0-.126-.06h-1.932c-.417 0-.754-.31-.754-.694 0-.383.337-.694.754-.694h1.932C15.293 0 16 .808 16 1.668v12.664c0 .86-.707 1.668-1.72 1.668H1.72A1.693 1.693 0 0 1 0 14.332V1.668C0 .808.707 0 1.72 0h1.932c.417 0 .754.31.754.694 0 .383-.337.694-.754.694H1.72a.177.177 0 0 0-.127.06Zm12.9 11.63H1.507v1.254c0 .097.038.173.085.22.047.047.092.06.127.06h12.56c.035 0 .08-.013.127-.06a.312.312 0 0 0 .085-.22v-1.254ZM5.796.694c0-.383.337-.694.754-.694h2.898c.417 0 .754.31.754.694v4.177h1.179c.29 0 .553.152.679.393a.65.65 0 0 1-.09.734L8.588 9.894a.78.78 0 0 1-.589.261.78.78 0 0 1-.589-.26L4.03 5.997a.65.65 0 0 1-.09-.734.762.762 0 0 1 .678-.393h1.179V.694Zm1.508.694v4.177c0 .383-.338.694-.754.694h-.365L8 8.349l1.814-2.09H9.45c-.416 0-.754-.311-.754-.694V1.388h-1.39Z"/></svg>
